src/main/resources/icons/AllIcons/objectBrowser/sorted_dark.svg

<!-- Copyright 2000-2021 JetBrains s.r.o. Use of this source code is governed by the Apache 2.0 license that can be found in the LICENSE file. -->
<svg xmlns="http://www.w3.org/2000/svg" width="16" height="16" viewBox="0 0 16 16">
  <g fill="none" fill-rule="evenodd">
    <rect width="2" height="9" x="4" y="2" fill="#AFB1B3"/>
    <polygon fill="#AFB1B3" points="5 10 9 14 1 14" transform="matrix(1 0 0 -1 0 24)"/>
    <path fill="#AFB1B3" d="M11.1167196,7 C10.1743896,7 9.39999962,6.54902002 9.39999962,5.56004003 L9.39999962,5.54138003 C9.39999962,4.44977004 10.1888083,4 11.3737183,4 C11.8775383,4 12.2829696,4.02992004 12.6375096,4.15121004 L12.6375096,4.06724004 C12.6375096,3.47945004 12.2736396,3.15290005 11.5645596,3.15290005 C11.0234196,3.15290005 10.6408896,3.25553005 10.1837196,3.42347005 L9.82917962,2.34119005 C10.3796496,2.09861006 10.9207896,2 11.7698196,2 C12.5442096,2 13.1040096,2.14526006 13.4585496,2.49980005 C13.8317496,2.87300005 13.9996896,3.42347005 13.9996896,4.09523004 L13.9996896,6.99686002 L12.6281796,6.99686002 L12.6281796,6.45572002 C12.2829696,6.83825002 11.8071396,7 11.1167196,7 Z M11.5458996,6.11051002 C12.2083296,6.11051002 12.6561696,5.74664003 12.6561696,5.23349003 L12.6561696,4.98158003 C12.4135896,4.86962003 12.0963696,4.79498003 11.7511596,4.79498003 C11.1447096,4.79498003 10.7715096,5.03756003 10.7715096,5.48540003 L10.7715096,5.50406003 C10.7715096,5.88659002 11.0887296,6.11051002 11.5458996,6.11051002 Z"/>
    <polygon fill="#AFB1B3" points="9.65 14.001 9.65 13.003 12.234 10.148 9.734 10.148 9.734 9 13.998 9 13.998 9.998 11.404 12.853 13.998 12.853 13.998 14.001"/>
  </g>
</svg>

<svg xmlns="http://www.w3.org/2000/svg" width="16" height="16" viewBox="0 0 16 16"><rect id="frame" width="16" height="16" fill="none"/><g fill="#AFB1B3" fill-rule="evenodd"><path d="M4 2h2v9H4z"/><path d="M5 14l4-4H1z"/><path d="M11.117 7C10.174 7 9.4 6.549 9.4 5.56v-.019C9.4 4.45 10.189 4 11.374 4c.504 0 .909.03 1.264.151v-.084c0-.588-.364-.914-1.073-.914-.542 0-.924.103-1.381.27l-.355-1.082C10.38 2.1 10.921 2 11.77 2c.775 0 1.335.145 1.69.5.373.373.54.923.54 1.595v2.902h-1.37v-.541c-.346.382-.822.544-1.512.544zm.429-.89c.662 0 1.11-.363 1.11-.877v-.251a2.199 2.199 0 0 0-.905-.187c-.606 0-.98.243-.98.69v.02c0 .382.318.606.775.606z"/><path d="M9.65 14.001v-.998l2.584-2.855h-2.5V9h4.264v.998l-2.594 2.855h2.594v1.148z"/></g></svg>
